packages/bezier-icons/icons/volume-up.svg

<svg width="24" height="24" viewBox="0 0 24 24" fill="none" xmlns="http://www.w3.org/2000/svg">
<path fill-rule="evenodd" clip-rule="evenodd" d="M12.9601 1.99951L12.8286 2.00818C12.6119 2.03691 12.4093 2.13612 12.253 2.2924L7.54498 6.99891L2.96008 6.99951C2.4078 6.99951 1.96008 7.44723 1.96008 7.99951V15.9995L1.96681 16.1161C2.02458 16.6135 2.44725 16.9995 2.96008 16.9995L7.54498 16.9989L12.253 21.7066C12.4405 21.8942 12.6949 21.9995 12.9601 21.9995H13.9601C14.5124 21.9995 14.9601 21.5518 14.9601 20.9995V2.99951C14.9601 2.44723 14.5124 1.99951 13.9601 1.99951H12.9601ZM12.96 4.4129V19.5849L8.6672 15.2924L8.56812 15.2056C8.39458 15.0727 8.18111 14.9995 7.96009 14.9995L3.95999 14.9989V8.9989L7.96009 8.9995C8.22531 8.9995 8.47966 8.89415 8.6672 8.70661L12.96 4.4129ZM19.4069 6.41358C19.7974 6.02311 20.4359 6.02021 20.7804 6.45174C23.3617 9.68492 23.3617 14.3142 20.7804 17.5474C20.4359 17.9789 19.7974 17.976 19.4069 17.5856C19.0164 17.1951 19.0236 16.5656 19.3539 16.123C21.1719 13.6867 21.1719 10.3125 19.3539 7.87613C19.0236 7.43356 19.0164 6.80404 19.4069 6.41358ZM16.9904 8.83008C17.3809 8.43962 18.0235 8.43571 18.3369 8.89037C19.6222 10.7553 19.6222 13.2447 18.3369 15.109C18.0235 15.5636 17.3809 15.5596 16.9905 15.1692C16.6 14.7787 16.6167 14.1492 16.8804 13.6639C17.4424 12.6298 17.4424 11.3692 16.8803 10.3351C16.6166 9.84996 16.5999 9.22055 16.9904 8.83008Z" fill="#313234"/>
</svg>

<svg xmlns="http://www.w3.org/2000/svg" width="24" height="24" fill="none" viewBox="0 0 24 24"><path fill="#313234" fill-rule="evenodd" d="m12.96 2-.131.008a1 1 0 0 0-.576.284L7.545 7H2.96a1 1 0 0 0-1 1v8l.007.117A1 1 0 0 0 2.96 17l4.585-.001 4.708 4.708a1 1 0 0 0 .707.293h1a1 1 0 0 0 1-1V3a1 1 0 0 0-1-1zm0 2.413v15.172l-4.293-4.293-.099-.086a1 1 0 0 0-.608-.207h-4v-6h4a1 1 0 0 0 .707-.292zm6.447 2c.39-.39 1.029-.393 1.373.039a8.92 8.92 0 0 1 0 11.095c-.344.432-.983.429-1.373.039s-.383-1.02-.053-1.463a6.92 6.92 0 0 0 0-8.247c-.33-.442-.338-1.072.053-1.462M16.99 8.83c.39-.39 1.034-.394 1.347.06a5.5 5.5 0 0 1 0 6.219c-.314.455-.956.45-1.346.06s-.374-1.02-.11-1.505a3.5 3.5 0 0 0 0-3.329c-.264-.485-.281-1.114.11-1.505" clip-rule="evenodd"/></svg>
